svg/Mapbox-maki/laundry-18.svg

<?xml version="1.0" encoding="UTF-8" standalone="no"?>
<!-- Generator: Adobe Illustrator 15.1.0, SVG Export Plug-In . SVG Version: 6.00 Build 0)  -->

<svg
   xmlns:dc="http://purl.org/dc/elements/1.1/"
   xmlns:cc="http://creativecommons.org/ns#"
   xmlns:rdf="http://www.w3.org/1999/02/22-rdf-syntax-ns#"
   xmlns:svg="http://www.w3.org/2000/svg"
   xmlns="http://www.w3.org/2000/svg"
   xmlns:sodipodi="http://sodipodi.sourceforge.net/DTD/sodipodi-0.dtd"
   xmlns:inkscape="http://www.inkscape.org/namespaces/inkscape"
   version="1.1"
   id="svg4619"
   sodipodi:docname="laundry-18.svg"
   inkscape:version="0.48.2 r9819"
   x="0px"
   y="0px"
   width="18px"
   height="18px"
   viewBox="-402.5 403.5 18 18"
   enable-background="new -402.5 403.5 18 18"
   xml:space="preserve"><metadata
   id="metadata3166"><rdf:RDF><cc:Work
       rdf:about=""><dc:format>image/svg+xml</dc:format><dc:type
         rdf:resource="http://purl.org/dc/dcmitype/StillImage" /></cc:Work></rdf:RDF></metadata><defs
   id="defs3164" />
<sodipodi:namedview
   id="base"
   inkscape:pageopacity="0.0"
   borderopacity="1.0"
   inkscape:cx="13.997947"
   inkscape:pageshadow="2"
   inkscape:zoom="16"
   inkscape:document-units="px"
   inkscape:current-layer="layer1"
   inkscape:guide-bbox="true"
   showguides="true"
   inkscape:window-width="1118"
   showgrid="true"
   inkscape:window-height="869"
   inkscape:window-x="207"
   inkscape:cy="7.678075"
   inkscape:window-y="101"
   inkscape:window-maximized="0"
   pagecolor="#ffffff"
   bordercolor="#666666">
	<inkscape:grid
   type="xygrid"
   id="grid4627"
   enabled="true"
   empspacing="2"
   visible="true"
   snapvisiblegridlinesonly="true"
   spacingx="0.5px"
   spacingy="0.5px">
		</inkscape:grid>
	<sodipodi:guide
   id="guide4659"
   position="7,18"
   orientation="0,1" />
	<sodipodi:guide
   id="guide4661"
   position="18,9"
   orientation="1,0" />
	<sodipodi:guide
   id="guide4663"
   position="16,17"
   orientation="0,1" />
	<sodipodi:guide
   id="guide4665"
   position="17,14"
   orientation="1,0" />
	<sodipodi:guide
   id="guide4667"
   position="0,16"
   orientation="1,0" />
	<sodipodi:guide
   id="guide4669"
   position="8,0"
   orientation="0,1" />
	<sodipodi:guide
   id="guide4671"
   position="2,10"
   orientation="1,0" />
	<sodipodi:guide
   id="guide4673"
   position="12,2"
   orientation="0,1" />
</sodipodi:namedview>
<g
   id="layer1"
   transform="translate(0,-1034.3622)"
   inkscape:groupmode="layer"
   inkscape:label="Layer 1">
<g
   id="g4308"
   transform="translate(17,0)"><g
     transform="translate(-31,1028.3622)"
     id="laundry-7"><g
       id="g3289"><path
         id="path4332"
         transform="translate(-389.5,409.5)"
         d="M 10.15625,2 7,5 5,5 5,16 16,16 16,2.78125 15.21875,2 10.15625,2 z M 11,3 12,4 11,5 10,4 11,3 z m 3,0 1,1 -1,1 -1,-1 1,-1 z M 10.5,7 C 12.432997,7 14,8.5670034 14,10.5 14,12.432997 12.432997,14 10.5,14 8.5670034,14 7,12.432997 7,10.5 7,8.5670034 8.5670034,7 10.5,7 z m -2,3.5 c 0,1.104569 0.8954305,2 2,2 1.104569,0 2,-0.895431 2,-2 l -2,0 -2,0 z"
         style="opacity:0.3;color:#000000;fill:none;stroke:#ffffff;stroke-width:2;stroke-linecap:butt;stroke-linejoin:miter;stroke-miterlimit:4;stroke-opacity:1;stroke-dasharray:none;stroke-dashoffset:0;marker:none;visibility:visible;display:inline;overflow:visible;enable-background:accumulate"
         inkscape:connector-curvature="0" /><path
         style="fill:#454545"
         d="M 10.15625,2 7,5 5,5 5,16 16,16 16,2.78125 15.21875,2 10.15625,2 z M 11,3 12,4 11,5 10,4 11,3 z m 3,0 1,1 -1,1 -1,-1 1,-1 z M 10.5,7 C 12.432997,7 14,8.5670034 14,10.5 14,12.432997 12.432997,14 10.5,14 8.5670034,14 7,12.432997 7,10.5 7,8.5670034 8.5670034,7 10.5,7 z m -2,3.5 c 0,1.104569 0.8954305,2 2,2 1.104569,0 2,-0.895431 2,-2 l -2,0 -2,0 z"
         transform="translate(-389.5,409.5)"
         id="path3291"
         inkscape:connector-curvature="0" /></g></g></g></g>

</svg>

<svg xmlns="http://www.w3.org/2000/svg" viewBox="-402.5 403.5 18 18" enable-background="new -402.5 403.5 18 18"><g transform="translate(-403.5 403.5)"><path d="m10.156 2l-3.156 3h-2v11h11v-13.219l-.781-.781h-5.063zm.844 1l1 1-1 1-1-1 1-1zm3 0l1 1-1 1-1-1 1-1zm-3.5 4c1.933 0 3.5 1.567 3.5 3.5 0 1.933-1.567 3.5-3.5 3.5-1.933 0-3.5-1.567-3.5-3.5 0-1.933 1.567-3.5 3.5-3.5zm-2 3.5c0 1.105.895 2 2 2 1.105 0 2-.895 2-2h-2-2z" opacity=".3" fill="none" stroke="#fff" color="#000" stroke-width="2"/><path d="m10.156 2l-3.156 3h-2v11h11v-13.219l-.781-.781h-5.063m.844 1l1 1-1 1-1-1 1-1m3 0l1 1-1 1-1-1 1-1m-3.5 4c1.933 0 3.5 1.567 3.5 3.5 0 1.933-1.567 3.5-3.5 3.5-1.933 0-3.5-1.567-3.5-3.5 0-1.933 1.567-3.5 3.5-3.5m-2 3.5c0 1.105.895 2 2 2 1.105 0 2-.895 2-2h-2-2" fill="#454545"/></g></svg>
